source/images/icons/icon-editorial/arbre.svg

<?xml version="1.0" encoding="UTF-8"?>
<svg width="80px" height="80px" viewBox="0 0 80 80" version="1.1" xmlns="http://www.w3.org/2000/svg" xmlns:xlink="http://www.w3.org/1999/xlink">
    <!-- Generator: Sketch 55.2 (78181) - https://sketchapp.com -->
    <title>Illustrative Icons/Arbre</title>
    <desc>Created with Sketch.</desc>
    <g id="Illustrative-Icons/Arbre" stroke="none" stroke-width="1" fill="none" fill-rule="evenodd">
        <path d="M46.3386181,73.6717467 L28.0052847,73.6717467 C27.0848102,73.6717467 26.3386181,72.9255547 26.3386181,72.0050801 C26.3386181,71.0846055 27.0848102,70.3384134 28.0052847,70.3384134 L46.3386181,70.3384134 C47.2590927,70.3384134 48.0052848,71.0846055 48.0052848,72.0050801 C48.0052848,72.9255547 47.2590927,73.6717467 46.3386181,73.6717467 Z M38.0052848,72.0050801 C37.0848102,72.0050801 36.3386181,71.258888 36.3386181,70.3384133 L36.3386181,22.00508 C36.3386181,21.0846054 37.0848102,20.3384133 38.0052848,20.3384133 C38.9257593,20.3384133 39.6719514,21.0846054 39.6719514,22.00508 L39.6719514,70.3384133 C39.6719514,71.258888 38.9257593,72.0050801 38.0052848,72.0050801 Z M38.0052848,23.6717499 C37.7471697,23.6712121 37.4927062,23.6107342 37.2619514,23.49508 L33.9286181,21.8284134 C33.1129772,21.4128447 32.785161,20.4172194 33.1943597,19.5983643 C33.6035584,18.7795091 34.5965984,18.4439427 35.4186181,18.8467467 L38.7519514,20.5134134 C39.4446531,20.8586508 39.8085373,21.6353282 39.6304711,22.3885326 C39.4524048,23.141737 38.77925,23.6732463 38.0052848,23.6717499 L38.0052848,23.6717499 Z M38.0052848,40.3384134 C37.3312916,40.3382695 36.723728,39.9322009 36.4658215,39.3095043 C36.2079149,38.6868077 36.3504382,37.9700705 36.8269514,37.4934134 L43.4936181,30.8267467 C44.1475829,30.1951263 45.1870927,30.2041594 45.8299824,30.8470491 C46.4728721,31.4899387 46.4819051,32.5294486 45.8502848,33.1834134 L39.1836181,39.85008 C38.8711302,40.1626623 38.4472761,40.3384134 38.0052848,40.3384134 Z M56.3386181,22.00508 C55.6646249,22.0049361 55.0570614,21.5988675 54.7991548,20.9761709 C54.5412483,20.3534744 54.6837716,19.6367371 55.1602848,19.16008 L58.4936181,15.8267467 C59.1475829,15.1951263 60.1870927,15.2041594 60.8299824,15.8470491 C61.4728721,16.4899387 61.4819051,17.5294485 60.8502848,18.1834133 L57.5169514,21.5167467 C57.2044636,21.829329 56.7806095,22.0049856 56.3386181,22.00508 Z M24.9786181,31.78508 C24.6560937,31.7848638 24.3405602,31.6910722 24.0702847,31.51508 C19.5494014,28.5781738 17.241964,23.2078016 18.2233393,17.9067916 C19.2047146,12.6057815 23.2817685,8.41736937 28.5544157,7.29353817 C33.8270629,6.16970698 39.2576494,8.33162606 42.3152848,12.7717467 C42.6546871,13.261796 42.7068696,13.8956892 42.4521756,14.4346449 C42.1974816,14.9736006 41.6746052,15.3357386 41.0805089,15.3846449 C40.4864126,15.4335513 39.9113537,15.161796 39.5719514,14.6717467 C37.2800153,11.3391942 33.2062811,9.71540946 29.2503154,10.5575571 C25.2943497,11.3997048 22.2352076,14.5419393 21.4993554,18.5190486 C20.7635032,22.496158 22.4958536,26.5249233 25.8886181,28.7267467 C26.5072218,29.1295539 26.7871586,29.8912964 26.5765957,30.5988185 C26.3660329,31.3063406 25.7151406,31.7910627 24.9769514,31.7900815 L24.9786181,31.78508 Z M29.6719514,47.0051012 C25.2842074,47.0051012 21.4090286,44.1446865 20.1161011,39.9517596 C18.8231735,35.7588326 20.4145456,31.2128423 24.0402847,28.7417467 C24.8005967,28.222599 25.8378037,28.4181014 26.3569514,29.1784134 C26.8760991,29.9387254 26.6805967,30.9759324 25.9202847,31.49508 C23.0730939,33.4311593 22.1686262,37.2169075 23.8331752,40.230904 C25.4977242,43.2449005 29.1836348,44.4955065 32.3386181,43.1167467 C33.1810247,42.7543551 34.157935,43.1405968 34.5247592,43.9810827 C34.8915834,44.8215686 34.5104933,45.8005001 33.6719514,46.1717467 C32.4109041,46.7241255 31.0486702,47.0079243 29.6719514,47.0051012 L29.6719514,47.0051012 Z M44.6719514,46.8084159 C43.8013726,46.8088897 43.0770876,46.1392449 43.0094158,45.2713001 C42.941744,44.4033553 43.553486,43.6295435 44.4136181,43.49508 C51.7138352,42.3312749 56.8919877,35.7498522 56.3053049,28.3807671 C55.7186221,21.0116819 49.5643514,15.3324795 42.1719514,15.3384133 C41.8069514,15.3384133 41.4369514,15.3517467 41.0719514,15.38008 C40.1610503,15.4391897 39.3720793,14.7545619 39.302244,13.8444202 C39.2324086,12.9342786 39.9076955,12.1372979 40.8169514,12.0567467 C41.2652848,12.0217467 41.7219514,12.0050721 42.1719514,12.0050721 C51.3061247,11.996485 58.9105754,19.0144736 59.6335199,28.1199964 C60.3564644,37.2255193 53.9547097,45.3555482 44.9336181,46.7884134 C44.8470492,46.8018792 44.7595612,46.8084159 44.6719514,46.8084159 Z" id="Shape-color" fill="#ADB5BD"></path>
    </g>
</svg>

<svg width="80" height="80">
    <title>
        Illustrative Icons/Arbre
    </title>
    <path d="M46.339 73.672H28.005a1.667 1.667 0 1 1 0-3.334H46.34a1.667 1.667 0 0 1 0 3.334zm-8.334-1.667c-.92 0-1.666-.746-1.666-1.667V22.005a1.667 1.667 0 0 1 3.333 0v48.333c0 .92-.746 1.667-1.667 1.667zm0-48.333c-.258 0-.512-.061-.743-.177l-3.333-1.667a1.667 1.667 0 0 1 1.49-2.981l3.333 1.666a1.667 1.667 0 0 1-.747 3.159zm0 16.666a1.667 1.667 0 0 1-1.178-2.845l6.667-6.666a1.667 1.667 0 0 1 2.356 2.356l-6.666 6.667a1.666 1.666 0 0 1-1.179.488zM56.34 22.005a1.667 1.667 0 0 1-1.179-2.845l3.334-3.333a1.667 1.667 0 0 1 2.356 2.356l-3.333 3.334a1.667 1.667 0 0 1-1.178.488zm-31.36 9.78c-.323 0-.638-.094-.909-.27a13.333 13.333 0 1 1 18.245-18.743 1.669 1.669 0 1 1-2.743 1.9 10 10 0 1 0-13.683 14.055 1.667 1.667 0 0 1-.912 3.063l.002-.005zm4.693 15.22a10 10 0 0 1-5.632-18.263 1.667 1.667 0 0 1 1.88 2.753 6.667 6.667 0 0 0 6.419 11.622 1.667 1.667 0 0 1 1.333 3.055 9.919 9.919 0 0 1-4 .833zm15-.197a1.667 1.667 0 0 1-.258-3.313c7.3-1.164 12.478-7.745 11.891-15.114-.586-7.37-6.74-13.049-14.133-13.043-.365 0-.735.014-1.1.042a1.667 1.667 0 0 1-.255-3.323c.448-.035.905-.052 1.355-.052 9.134-.009 16.739 7.01 17.462 16.115.722 9.106-5.68 17.236-14.7 18.668-.087.014-.174.02-.262.02z" fill="#ADB5BD" fill-rule="evenodd"/>
</svg>
